icons/closeSmall_dark.svg

<svg xmlns="http://www.w3.org/2000/svg" width="16" height="16" fill="none"><path fill="#6f737a" fill-rule="evenodd" d="M11.4939 4.48784c-.1937-.20777-.5215-.21236-.721-.01009L8.00074 7.28849 5.22871 4.47788c-.19949-.20227-.52728-.19768-.72103.01009-.18262.19585-.17835.50085.00968.6915l2.78172 2.82044-2.78152 2.82019c-.18803.1907-.1923.4957-.00968.6915.19375.2078.52154.2124.72104.0101l2.77182-2.81037 2.77196 2.81057c.1995.2022.5273.1977.721-.0101.1827-.1959.1784-.5009-.0097-.6915L8.7024 7.99991l2.7819-2.82057c.188-.19065.1923-.49566.0096-.6915" clip-rule="evenodd"/></svg>

<!-- Copyright 2000-2022 JetBrains s.r.o. and contributors. Use of this source code is governed by the Apache 2.0 license. -->
<svg width="16" height="16" viewBox="0 0 16 16" fill="none" xmlns="http://www.w3.org/2000/svg">
<path fill-rule="evenodd" clip-rule="evenodd" d="M11.4939 4.48784C11.3002 4.28007 10.9724 4.27548 10.7729 4.47775L8.00074 7.28849L5.22871 4.47788C5.02922 4.27561 4.70143 4.2802 4.50768 4.48797C4.32506 4.68382 4.32933 4.98882 4.51736 5.17947L7.29908 7.99991L4.51756 10.8201C4.32953 11.0108 4.32526 11.3158 4.50788 11.5116C4.70163 11.7194 5.02942 11.724 5.22892 11.5217L8.00074 8.71133L10.7727 11.5219C10.9722 11.7241 11.3 11.7196 11.4937 11.5118C11.6764 11.3159 11.6721 11.0109 11.484 10.8203L8.7024 7.99991L11.4843 5.17934C11.6723 4.98869 11.6766 4.68368 11.4939 4.48784Z" fill="#6F737A"/>
</svg>
